!!!COM:	Regis, Johannes
!!!CDT:	~1425///-~1496///
!!!OTL:	Lauda Sion salvatorem / Ego sum panis
!!!AGN:	Motet
!!!SCT:	Reg2005
!!!SCA:	Reg2005
!!!voices:	5
**kern	**kern	**kern	**kern	**kern
*staff5	*staff4	*staff3	*staff2	*staff1
*Ivox	*Ivox	*Ivox	*Ivox	*Ivox
*I"Bassus	*I"Tenor2	*I"Tenor	*I"Altus	*I"Superius
*I'B	*I'T2	*I'T	*I'A	*I'S
*>[A,B]	*>[A,B]	*>[A,B]	*>[A,B]	*>[A,B]
*>A	*>A	*>A	*>A	*>A
*clefF4	*clefF4	*clefGv2	*clefGv2	*clefG2
*k[]	*k[]	*k[]	*k[]	*k[]
*M3/1	*M3/1	*M3/1	*M3/1	*M3/1
*met(O)	*met(O)	*met(O)	*met(O)	*met(O)
!!section: Lauda Sion salvatorem/Ego sum panis
!!!OMD: Lauda Sion salvatorem/Ego sum panis
=1-	=1-	=1-	=1-	=1-
0.r	0D	0.r	0d	1d
.	.	.	.	1d
.	1D	.	1d	1f
=2	=2	=2	=2	=2
0.r	1.A	0.r	1c	1e
.	.	.	2A/	2c\
.	4G\	.	2B\	2d\
.	4F\	.	.	.
.	1E	.	1c	1e
=3	=3	=3	=3	=3
0.r	1D	0.r	2.d\	2f\
.	.	.	.	1d
.	.	.	4c\	.
.	2r	.	2B\	.
.	2.A\	.	2A/	1e
.	.	.	1c	.
.	4G\	.	.	.
.	4F\	.	.	[2f\
.	4E\	.	.	.
=4	=4	=4	=4	=4
0.r	2D\	0.r	2d\	2f\]
.	2C/	.	2.e\	2g\
.	2.F\	.	.	2a\
.	.	.	4d\	.
.	.	.	1d	2f\
.	4G\	.	.	.
.	1A	.	.	1e
.	.	.	2c#i\	.
=5	=5	=5	=5	=5
0.r	2D\	0.r	0d	1d
.	2.G\	.	.	.
.	.	.	.	1r
.	4A\	.	.	.
.	1B-	.	.	.
.	.	.	1d	1f
.	4A\	.	.	.
.	4G\	.	.	.
=6	=6	=6	=6	=6
0.r	2F\	0.r	1d	1f
.	2D\	.	.	.
.	1A	.	1c	1e
.	[1D	.	2.d\	1d
.	.	.	8c\L	.
.	.	.	8B\J	.
=7	=7	=7	=7	=7
0.r	1D]	0.r	2A/	1f
.	.	.	2.d\	.
.	1r	.	.	1e
.	.	.	4c\	.
.	.	.	2c\	.
.	1r	.	2B\	2d\
.	.	.	2G/	[2e\
=8	=8	=8	=8	=8
0.r	0.r	0.r	2A/	4e\]
.	.	.	.	4d\
.	.	.	4G/	2d\
.	.	.	4F/	.
.	.	.	2E/	2e\
.	.	.	1A	2c\
.	.	.	.	1B
.	.	.	2G#i/	.
=9	=9	=9	=9	=9
0.r	0.r	0.r	1A	0A
.	.	.	2r	.
.	.	.	2A/	.
.	.	.	2.c\	2r
.	.	.	.	2A/
.	.	.	4d\	.
=10	=10	=10	=10	=10
0.r	0.r	0.r	2e\	2.c\
.	.	.	2f\	.
.	.	.	.	4d\
.	.	.	2e\	2e\
.	.	.	2.d\	2f\
.	.	.	.	2e\
.	.	.	4c\	.
.	.	.	2c\	[2a\
=11	=11	=11	=11	=11
0.r	0.r	0.r	2B\	4a\]
.	.	.	.	4g\
.	.	.	2.d\	2f\
.	.	.	.	2e\
.	.	.	4c\	.
.	.	.	2B\	2.g\
.	.	.	2A/	.
.	.	.	.	4f\
.	.	.	2G/	4e\
.	.	.	.	4d\
=12	=12	=12	=12	=12
0.r	0.r	0.r	1A	2f\
.	.	.	.	1e
.	.	.	2F/	.
.	.	.	2D/	2.d\
.	.	.	1E	.
.	.	.	.	4c#i\
.	.	.	.	2c#i\
=13	=13	=13	=13	=13
[0.DD	0A	[0.D	0D	1d
.	.	.	.	1r
.	1A	.	1r	1d
=14	=14	=14	=14	=14
0.DD]	[0.A	0.D]	1D	1f
.	.	.	2.F/	2d\
.	.	.	.	1f
.	.	.	4G/	.
.	.	.	1A	.
.	.	.	.	2g\
=15	=15	=15	=15	=15
0.D	1A]	0.F	1A	1a
.	0F	.	0B	1d
.	.	.	.	1r
=16	=16	=16	=16	=16
0.C	0G	0.E	0c	1.e
.	.	.	.	2f\
.	1E	.	[1G	[1g
=17	=17	=17	=17	=17
0.BB	0.r	0.D	0.G]	2g\]
.	.	.	.	4f\
.	.	.	.	4e\
.	.	.	.	1.d
.	.	.	.	2c\
=18	=18	=18	=18	=18
0AA	1.E	0.C	0A	1e
.	.	.	.	2A/
.	1A	.	.	2.c\
1C	.	.	1r	.
.	.	.	.	4d\
.	2G\	.	.	2e\
=19	=19	=19	=19	=19
1D	2F\	1F	[0.A	2f\
.	1A	.	.	2d\
0AA	.	0E	.	2e\
.	4G\	.	.	1c#i
.	4F\	.	.	.
.	1E	.	.	.
.	.	.	.	4B\
.	.	.	.	4c#i\
=20	=20	=20	=20	=20
0DD	1.F	0.D	1A]	0d
.	.	.	1.F	.
.	2G\	.	.	.
1r	1A	.	.	1r
.	.	.	2G/	.
=21	=21	=21	=21	=21
1DD	1D	0.r	1.A	1f
1D	1r	.	.	1f
.	.	.	1d	.
1E	1G	.	.	1g
.	.	.	2c#i\	.
=22	=22	=22	=22	=22
0D	1.F	0F	0d	1a
.	.	.	.	1f
.	1D	.	.	.
1GG	.	1G	1B	2d\
.	2G\	.	.	2e\
=23	=23	=23	=23	=23
1D	2F\	1A	2A/	1f
.	2A\	.	2d\	.
1E	2E\	1G	2c\	1g
.	2.G\	.	2B\	.
1C	.	[1c	2c\	1e
.	4F\	.	.	.
.	4E\	.	2G/	.
.	4D\	.	.	.
=24	=24	=24	=24	=24
1AA	1E	1c]	2A/	1.a
.	.	.	1e	.
0E	1r	0B	.	.
.	.	.	2e\	2g#i\
.	1E	.	[1e	2g#i\
.	.	.	.	2f#i\
=25	=25	=25	=25	=25
[0.AA	1.C	0A	1e]	1a
.	.	.	1e	2r
.	2D\	.	.	1e
.	1E	1r	[1c	.
.	.	.	.	[2f\
=26	=26	=26	=26	=26
1AA]	2r	1F	1c]	4f\]
.	.	.	.	4e\
.	2AA/	.	.	2c\
1BB	1D	1G	1B	1d
1AA	1E	1A	[1c	2c\
.	.	.	.	[2e\
=27	=27	=27	=27	=27
2C/	0.r	2G/	2c\]	2e\]
2D\	.	2F/	1.A	1d
1AA	.	1E	.	.
.	.	.	.	2c\
1DD	.	2D/	1A	2d\
.	.	[2A/	.	[2f\
=28	=28	=28	=28	=28
2AA/	1r	2A/]	1r	2f\]
2C/	.	2G/	.	1e
2AA/	1r	2A/	1A	.
2D\	.	2F/	.	1d
1AA	1E	1E	1A	.
.	.	.	.	2c#i\
=29	=29	=29	=29	=29
[0.DD	1.F	0.D	[0.A	0d
.	2G\	.	.	.
.	1A	.	.	1r
=30	=30	=30	=30	=30
0.DD]	0.D	0.r	1A]	0d
.	.	.	0F	.
.	.	.	.	1f
=31	=31	=31	=31	=31
0.r	0.r	0.r	1A	1f
.	.	.	1c	1e
.	.	.	1B	1d
=32	=32	=32	=32	=32
0.r	0.r	0.r	2A/	2c\
.	.	.	2F/	2d\
.	.	.	2D/	2B\
.	.	.	1G	2G/
.	.	.	.	1A
.	.	.	2F#i/	.
=33	=33	=33	=33	=33
0.r	0.r	0.r	1G	1G
.	.	.	2G/	2B\
.	.	.	2A/	2c\
.	.	.	2B\	2d\
.	.	.	2G/	2e\
=34	=34	=34	=34	=34
0.r	0.r	0.r	2A/	2f\
.	.	.	1G	1e
.	.	.	2F/	1d
.	.	.	1E	.
.	.	.	.	2c#i\
=35	=35	=35	=35	=35
0.D	0F	0.A	0D	1d
.	.	.	.	1r
.	1F	.	1r	1f
=36	=36	=36	=36	=36
0C	0.G	0c	0E	1e
.	.	.	.	2c\
.	.	.	.	2.e\
[1GG	.	1B	1G	.
.	.	.	.	4d\
.	.	.	.	[2d\
=37	=37	=37	=37	=37
1GG]	1r	1G	0d	2d\]
.	.	.	.	1g
0D	1r	0A	.	.
.	.	.	.	2f#i\
.	1D	.	1d	2f#i\
.	.	.	.	2e\
=38	=38	=38	=38	=38
0.GG	1D	0G	0B	0.g
.	1.G	.	.	.
.	.	1r	1d	.
.	2F\	.	.	.
=39	=39	=39	=39	=39
0.r	1E	1G	1c	0.r
.	2D\	1B	1d	.
.	2G\	.	.	.
.	2A\	2A/	2c\	.
.	2F\	[2d\	[2A/	.
=40	=40	=40	=40	=40
0.r	1E	2d\]	2A/]	0.r
.	.	2c\	2G/	.
.	1.D	2.d\	1A	.
.	.	4c\	.	.
.	.	4B\	2F/	.
.	.	4A/	.	.
.	2F\	2d\	2A/	.
=41	=41	=41	=41	=41
0.r	2E\	2c\	2G/	0.r
.	2D\	1B	2.F/	.
.	2E\	.	.	.
.	.	.	4E/	.
.	2C/	1A	1E	.
.	1BB	.	.	.
.	.	2G#i/	2D/	.
=42	=42	=42	=42	=42
0AA	2AA/	0.A	0E	0.r
.	2.C/	.	.	.
.	4D\	.	.	.
.	2E\	.	.	.
1D	1F	.	1r	.
=43	=43	=43	=43	=43
1C	1E	0.r	0.r	0.r
2.D\	2F\	.	.	.
.	2D\	.	.	.
4C/	.	.	.	.
2AA/	2E\	.	.	.
2BB/	2G\	.	.	.
=44	=44	=44	=44	=44
2AA/	2F\	0.r	0.r	0.r
2GG/	2.E\	.	.	.
2AA/	.	.	.	.
.	4D\	.	.	.
2FF/	1D	.	.	.
1EE	.	.	.	.
.	2C#i/	.	.	.
=45	=45	=45	=45	=45
0.DD	0.D	0.r	0.A	0d
.	.	.	.	1f
=46	=46	=46	=46	=46
0.r	0.r	0.r	1G	1e
.	.	.	1B	1d
.	.	.	1A	1r
=47	=47	=47	=47	=47
0.r	0.r	0.r	1G	1g
.	.	.	1r	2f\
.	.	.	.	2d\
.	.	.	1c	1e
=48	=48	=48	=48	=48
0.r	0.r	0.r	2B\	1d
.	.	.	2G/	.
.	.	.	2A/	1r
.	.	.	4G/	.
.	.	.	4F/	.
.	.	.	1E	1e
=49	=49	=49	=49	=49
0.r	0.r	0.r	2D/	1f
.	.	.	1A	.
.	.	.	.	1e
.	.	.	2G/	.
.	.	.	2F/	1d
.	.	.	2D/	.
=50	=50	=50	=50	=50
0.r	0.r	0.r	2F/	2A/
.	.	.	2G/	2B\
.	.	.	2D/	2A/
.	.	.	2F/	1d
.	.	.	1E	.
.	.	.	.	2c#i\
=51	=51	=51	=51	=51
0.DD	1.A	0.d	0.D	1d
.	.	.	.	1r
.	2G\	.	.	.
.	1F	.	.	1f
=52	=52	=52	=52	=52
0.EE	0E	0.G	0.r	1g
.	.	.	.	2e\
.	.	.	.	2.g\
.	1G	.	.	.
.	.	.	.	4f\
.	.	.	.	4e\
.	.	.	.	4d\
=53	=53	=53	=53	=53
0FF	1F	0A	1A	1d
.	1A	.	1c	2A/
.	.	.	.	1c
1GG	1G	1D	1G	.
.	.	.	.	2B\
=54	=54	=54	=54	=54
1DD	0.r	1F	0.A	2A/
.	.	.	.	2d\
0AA	.	0E	.	2e\
.	.	.	.	1c#i
.	.	.	.	2B\
=55	=55	=55	=55	=55
0BB-i	1r	0.D	0F	0d
.	1D	.	.	.
1GG	1BB	.	1G	1d
=56	=56	=56	=56	=56
1C	1AA	1E	1A	1c
2BB/	2D\	2D/	1B	2d\
2GG/	1D	1G	.	2B\
1AA	.	.	1c	1A
.	2C/	2F#i/	.	.
=57	=57	=57	=57	=57
0GG	0D	0G	0.B	1r
.	.	.	.	0d
1GG	1D	1G	.	.
=58	=58	=58	=58	=58
1AA	1F	1c	1A	1c
1GG	0G	1.B	1B	1d
[1C	.	.	1G	1e
.	.	2A/	.	.
=59	=59	=59	=59	=59
1C]	1E	1.A	0.r	1c
0BB	0D	.	.	1d
.	.	2G#i/	.	.
.	.	2G#i/	.	1d
.	.	2F#i/	.	.
=60	=60	=60	=60	=60
0.AA	0.E	0.A	1.A	1.c
.	.	.	2B\	2d\
.	.	.	1c	1e
=61	=61	=61	=61	=61
0.DD	0.D	0.r	0d	1.f
.	.	.	.	2.a\
.	.	.	2A/	.
.	.	.	.	4g\
.	.	.	[2d\	2f\
=62	=62	=62	=62	=62
0.r	0.r	0.r	4d\]	2e\
.	.	.	4c\	.
.	.	.	2B\	2d\
.	.	.	2A/	2e\
.	.	.	2G/	2g\
.	.	.	1A	2f\
.	.	.	.	[2e\
=63	=63	=63	=63	=63
0.r	0.r	0.r	2E/	4e\]
.	.	.	.	4d\
.	.	.	2A/	2c\
.	.	.	2G/	2B\
.	.	.	2E/	1e
.	.	.	1F	.
.	.	.	.	2d\
=64	=64	=64	=64	=64
0.AA	0.r	0.E	0E	1e
.	.	.	.	1r
.	.	.	1r	1a
=65	=65	=65	=65	=65
0.D	0.r	0.F	1r	1.a
.	.	.	1A	.
.	.	.	.	2g\
.	.	.	1B	1f
=66	=66	=66	=66	=66
0C	0E	0G	0c	1e
.	.	.	.	2c\
.	.	.	.	2e\
1D	2D\	1F	1A	2f\
.	2F\	.	.	[2d\
=67	=67	=67	=67	=67
2GG/	2G\	2D/	2B\	4d\]
.	.	.	.	4c\
2D\	2r	2F/	2A/	2d\
2C/	2.E\	2E/	1c	2e\
2AA/	.	2.A/	.	4d\
.	4F\	.	.	4c\
1E	1G	.	2r	2B\
.	.	4G/	.	.
.	.	2G/	2G/	2e\
=68	=68	=68	=68	=68
2D\	2D\	2F/	2A/	2f\
1C	2E\	1G	1c	2.e\
.	1r	.	.	.
.	.	.	.	4d\
2D\	.	2F/	1A	1d
1AA	1E	1E	.	.
.	.	.	2A/	2c#i\
=69	=69	=69	=69	=69
[0.DDl	1.F	[0.Dl	[0.Al	[0.dl
.	2G\	.	.	.
.	1A	.	.	.
=70	=70	=70	=70	=70
0.DD]	0.F#l	0.D]	0.A]	0.d]
!!LO:LB:i:g=z
=71||	=71||	=71||	=71||	=71||
*>B	*>B	*>B	*>B	*>B
*clefF4	*clefF4	*clefGv2	*clefGv2	*clefG2
*k[]	*k[]	*k[]	*k[]	*k[]
*M2/1	*M2/1	*M2/1	*M2/1	*M2/1
*met(C|)	*met(C|)	*met(C|)	*met(C|)	*met(C|)
!!section: In hac mensa novi Regis/Qui manducat me
!!!OMD: In hac mensa novi Regis/Qui manducat me
0AA	0E	0r	0A	0e
=72	=72	=72	=72	=72
1AA	1E	0r	1A	1c
1D	1F	.	1B	1d
=73	=73	=73	=73	=73
1C	1G	0r	1c	1e
1C	1E	.	1c	1g
=74	=74	=74	=74	=74
1D	1F	0r	1A	2f\
.	.	.	.	2e\
1D	1F	.	1A	1d
=75	=75	=75	=75	=75
0AA	0E	0r	0A	0c
=76	=76	=76	=76	=76
0r	0AA	0r	1A	1r
.	.	.	1A	1c
=77	=77	=77	=77	=77
0r	0r	0r	1B	1d
.	.	.	1d	1f
=78	=78	=78	=78	=78
0AA	0E	0r	1.c	1e
.	.	.	.	1e
.	.	.	4B\	.
.	.	.	4A/	.
=79	=79	=79	=79	=79
1E	1E	0r	1G	1g
1D	1F	.	1A	1f
=80	=80	=80	=80	=80
1AA	1C	0r	1c	2e\
.	.	.	.	2c\
1D	1F	.	1B	1d
=81	=81	=81	=81	=81
2C/	2E\	0r	2A/	1e
2AA/	2C/	.	1A	.
1BB	1D	.	.	1r
.	.	.	2G#i/	.
=82	=82	=82	=82	=82
0AA	[0E	0r	[0A	0c
=83	=83	=83	=83	=83
0AA	0E]	0r	0A]	1A
.	.	.	.	1c
=84	=84	=84	=84	=84
0DD	1F	0r	0r	1d
.	1A	.	.	1f
=85	=85	=85	=85	=85
1AA	1E	0r	1A	1e
1D	2F\	.	1A	2d\
.	[2A\	.	.	2f\
=86	=86	=86	=86	=86
2C/	4A\]	0r	1A	2e\
.	4G\	.	.	.
2D\	2F\	.	.	1d
1AA	1E	.	1A	.
.	.	.	.	2c#i\
=87	=87	=87	=87	=87
[0DD	[0D	0r	1A	0d
.	.	.	1A	.
=88	=88	=88	=88	=88
0DD_	0D]	0r	0A	0r
=89	=89	=89	=89	=89
0DD_	1.F	0r	0r	0A
.	2G\	.	.	.
=90	=90	=90	=90	=90
0DD]	1A	0r	0r	1A
.	1D	.	.	1B
=91	=91	=91	=91	=91
0r	0r	0r	0A	1.c
.	.	.	.	4B\
.	.	.	.	4c\
=92	=92	=92	=92	=92
0r	0r	0r	1B	0d
.	.	.	1d	.
=93	=93	=93	=93	=93
0r	0r	0r	1.c	1r
.	.	.	.	1e
.	.	.	4B\	.
.	.	.	4c\	.
=94	=94	=94	=94	=94
0r	0r	0r	1d	1f
.	.	.	2B\	1g
.	.	.	[2c\	.
=95	=95	=95	=95	=95
0r	0r	0r	2c\]	1a
.	.	.	1A	.
.	.	.	.	2e\
.	.	.	2B\	2g\
=96	=96	=96	=96	=96
0r	0r	0r	2A/	2f\
.	.	.	2.c\	2.e\
.	.	.	4B\	4d\
.	.	.	2A/	2c\
=97	=97	=97	=97	=97
0r	0r	0r	2G/	2B\
.	.	.	2A/	2A/
.	.	.	2F/	[1d
.	.	.	[2G/	.
=98	=98	=98	=98	=98
0r	0r	0r	4G/]	2d\]
.	.	.	4F/	.
.	.	.	4E/	2c#i\
.	.	.	4D/	.
.	.	.	1E	2c#i\
.	.	.	.	2B\
=99	=99	=99	=99	=99
[0DD	0D	[0A	1D	0d
.	.	.	1r	.
=100	=100	=100	=100	=100
0DD]	0F	0A_	0d	0r
=101	=101	=101	=101	=101
[0AA	[0E	0A_	[0c	0e
=102	=102	=102	=102	=102
0AA]	0E]	0A]	0c]	0e
=103	=103	=103	=103	=103
0DD	0D	1.A	0d	1.f
.	.	4G/	.	4e\
.	.	4F/	.	4d\
=104	=104	=104	=104	=104
1AA	0r	1E	1c	2e\
.	.	.	.	2f\
1BB	.	1D	1d	1g
=105	=105	=105	=105	=105
1AA	[0A	1E	1c	0a
[1D	.	[1F	[1f	.
=106	=106	=106	=106	=106
2D\]	1A]	2F/]	2f\]	1r
2C/	.	1A	2e\	.
1BB	1B	.	1d	1d
.	.	2G#i/	.	.
=107	=107	=107	=107	=107
1AA	1c	[0A	1c	1e
1DD	[1A	.	[1d	[1f
=108	=108	=108	=108	=108
1r	2A\]	0A]	2d\]	2f\]
.	2G\	.	2c\	2e\
1D	1F	.	1A	1f
=109	=109	=109	=109	=109
1E	0E	1G	0r	1g
1C	.	[1c	.	[1e
=110	=110	=110	=110	=110
0D	0F	2c\]	0r	2e\]
.	.	2B\	.	2d\
.	.	[1B	.	1d
=111	=111	=111	=111	=111
0AA	0E	2B\]	0r	1e
.	.	2A/	.	.
.	.	[1A	.	1c
=112	=112	=112	=112	=112
0E	1r	1A]	0e	0B
.	1E	1G#i	.	.
=113	=113	=113	=113	=113
0AA	0E	0A	1.c	0A
.	.	.	2d\	.
=114	=114	=114	=114	=114
0r	0AA	0r	0e	1r
.	.	.	.	1A
=115	=115	=115	=115	=115
0r	1r	0r	[0A	1.c
.	[1AA	.	.	.
.	.	.	.	2d\
=116	=116	=116	=116	=116
0r	1AA]	0r	1A]	2e\
.	.	.	.	2f\
.	1GG	.	1B	[1g
=117	=117	=117	=117	=117
0r	0D	0r	1A	2g\]
.	.	.	.	2f\
.	.	.	1d	1f
=118	=118	=118	=118	=118
0r	0AA	0r	1c	1e
.	.	.	1A	[1a
=119	=119	=119	=119	=119
0r	0E	0r	0B	1a]
.	.	.	.	1g#i
=120	=120	=120	=120	=120
0r	0F	0D	0A	0a
=121	=121	=121	=121	=121
0D	1D	1.F	0r	0r
.	1F	.	.	.
.	.	2G/	.	.
=122	=122	=122	=122	=122
1.C	1.E	1A	0r	0r
.	.	1G	.	.
2BB/	2D\	.	.	.
=123	=123	=123	=123	=123
0AA	0C	1F	0r	0r
.	.	[1E	.	.
=124	=124	=124	=124	=124
1GG	1BB	2E/]	0r	0r
.	.	2D/	.	.
1FF	[1AA	[1D	.	.
=125	=125	=125	=125	=125
0EE	1AA]	1D]	0r	0r
.	1GG	1C#i	.	.
=126	=126	=126	=126	=126
[0DD	0AA	[0D	[0A	0d
=127	=127	=127	=127	=127
0DD]	0r	0D]	0A]	0d
=128	=128	=128	=128	=128
0r	0D	0r	0A	0f
=129	=129	=129	=129	=129
0r	1C	0r	1c	1e
.	1G	.	1B	1d
=130	=130	=130	=130	=130
0r	2F\	0r	1A	1r
.	1F	.	.	.
.	.	.	1r	1f
.	4E\	.	.	.
.	4D\	.	.	.
=131	=131	=131	=131	=131
0r	1C	0r	1c	2e\
.	.	.	.	2.g\
.	1D	.	2A/	.
.	.	.	.	4f\
.	.	.	[2d\	2f\
=132	=132	=132	=132	=132
0r	1AA	0r	4d\]	2e\
.	.	.	4c\	.
.	.	.	2c\	2.a\
.	2r	.	2B\	.
.	.	.	.	4g\
.	2AA/	.	2c\	2e\
=133	=133	=133	=133	=133
0r	2BB/	0r	2G/	2d\
.	2GG/	.	2B\	1g
.	1D	.	1A	.
.	.	.	.	2f#i\
=134	=134	=134	=134	=134
[0GG	0D	1.G	0G	0g
.	.	2A/	.	.
=135	=135	=135	=135	=135
1GG]	1D	1B	1d	1r
1AA	[1A	1c	1c	1e
=136	=136	=136	=136	=136
1BB	2A\]	1B	1d	1d
.	2G\	.	.	.
1GG	1G	1d	1B	[1g
=137	=137	=137	=137	=137
1AA	1E	1c	0c	2g\]
.	.	.	.	2f\
1C	1C	[1A	.	1e
=138	=138	=138	=138	=138
0BB	0r	1A]	1r	0d
.	.	1G#i	1d	.
=139	=139	=139	=139	=139
0AA	0E	0A	1e	1c
.	.	.	1c	1e
=140	=140	=140	=140	=140
1BB	[0G	1.d	[0B	1.d
[1GG	.	.	.	.
.	.	2c\	.	[2g\
=141	=141	=141	=141	=141
1GG]	0G]	1d	1B]	2g\]
.	.	.	.	2f\
1C	.	1e	1G	[1e
=142	=142	=142	=142	=142
1AA	1A	1c	2A/	1e]
.	.	.	2c\	.
1BB	1D	1d	2B\	1d
.	.	.	2d\	.
=143	=143	=143	=143	=143
2AA/	0r	0A	1.c	1e
2.AA/	.	.	.	.
.	.	.	.	1f
4GG/	.	.	.	.
2FF/	.	.	2d\	.
=144	=144	=144	=144	=144
1EE	1C	1G	1e	1g
1DD	[1D	1A	[1f	2f\
.	.	.	.	[2a\
=145	=145	=145	=145	=145
1r	1D]	1F	2f\]	2a\]
.	.	.	2e\	2g\
1AA	1E	[1A	[1c	[1e
=146	=146	=146	=146	=146
1C	2C/	2A/]	1c]	2e\]
.	2E\	2G/	.	2d\
1D	2F\	1F	[1A	[1d
.	[2A\	.	.	.
=147	=147	=147	=147	=147
0AA	2A\]	0E	1A]	1d]
.	2G\	.	.	.
.	1E	.	1A	1c#i
=148	=148	=148	=148	=148
[0DD	1F	[0D	1A	0d
.	1D	.	1A	.
=149	=149	=149	=149	=149
0DD_	1.F	0D]	0A	1r
.	.	.	.	1d
.	2G\	.	.	.
=150	=150	=150	=150	=150
0DD]	1A	0r	0r	1.f
.	1D	.	.	.
.	.	.	.	2g\
=151	=151	=151	=151	=151
0r	1r	0r	0r	1a
.	1G	.	.	1d
=152	=152	=152	=152	=152
0r	1F	0r	0r	1r
.	1E	.	.	1g
=153	=153	=153	=153	=153
0r	1D	0r	0r	1f
.	[1G	.	.	1e
=154	=154	=154	=154	=154
0r	2G\]	0r	0r	1d
.	2F\	.	.	.
.	1E	.	.	[1g
=155	=155	=155	=155	=155
0r	1D	0r	0r	2g\]
.	.	.	.	2f\
.	1C	.	.	1e
=156	=156	=156	=156	=156
0r	1F	0r	0r	1d
.	1E	.	.	1c
=157	=157	=157	=157	=157
0r	1D	0r	0r	1f
.	2r	.	.	1e
.	2AA/	.	.	.
=158	=158	=158	=158	=158
0r	2BB/	0r	0r	1d
.	2.D\	.	.	.
.	.	.	.	2A/
.	4C/	.	.	.
.	2D\	.	.	2B\
=159	=159	=159	=159	=159
0r	2F\	0r	0r	2A/
.	2E\	.	.	2c\
.	2D\	.	.	2d\
.	[2A\	.	.	[2f\
=160	=160	=160	=160	=160
0r	2A\]	0r	0r	2f\]
.	2G\	.	.	2e\
.	2F\	.	.	2d\
.	2D\	.	.	[2f\
=161	=161	=161	=161	=161
0r	2F\	0r	0r	4f\]
.	.	.	.	4e\
.	2G\	.	.	2.d\
.	1E	.	.	.
.	.	.	.	4c#i\
.	.	.	.	2c#i\
=162	=162	=162	=162	=162
[0DD	0D	[0D	[0A	[0d
=163	=163	=163	=163	=163
0DD]	1.F	0D]	0A]	0d]
.	2G\	.	.	.
=164	=164	=164	=164	=164
0D	1A	0F	0A	0r
.	1D	.	.	.
=165	=165	=165	=165	=165
0BB	0r	0G	1B	0d
.	.	.	1d	.
=166	=166	=166	=166	=166
0AA	1.E	1.A	1.e	1.c
.	2F\	4G/	2B\	2d\
.	.	4F/	.	.
=167	=167	=167	=167	=167
0r	1G	1E	1c	1e
.	[1A	1D	1d	1f
=168	=168	=168	=168	=168
1AA	1A]	1F	1c	1a
1BB	1D	1G	2B\	1g
.	.	.	2d\	.
=169	=169	=169	=169	=169
1AA	1C	2A/	2c\	1f
.	.	2c\	2A/	.
1GG	1D	2B\	1B	1g
.	.	[2d\	.	.
=170	=170	=170	=170	=170
2.C/	0E	4d\]	1c	0r
.	.	4c\	.	.
.	.	2A/	.	.
4BB/	.	.	.	.
2AA/	.	2c\	[1e	.
2GG/	.	[2B\	.	.
=171	=171	=171	=171	=171
1C	0r	2B\]	1e]	1c
.	.	1A	.	.
1BB	.	.	1d	1d
.	.	2G#i/	.	.
=172	=172	=172	=172	=172
0AA	1E	0A	0c	1.e
.	1A	.	.	.
.	.	.	.	2f\
=173	=173	=173	=173	=173
1GG	1D	1B	1d	1g
1AA	[1A	1A	1c	2f\
.	.	.	.	[2e\
=174	=174	=174	=174	=174
0DD	2A\]	1F	[0A	2e\]
.	2G\	.	.	2d\
.	1F	1D	.	[1d
=175	=175	=175	=175	=175
0AA	1r	0E	0A]	1d]
.	1E	.	.	1c#i
=176	=176	=176	=176	=176
[0DDl	1.F	[0Dl	[0Al	[0dl
.	2G\	.	.	.
=177	=177	=177	=177	=177
0DD_	0A	0D_	0A_	0d_
=178	=178	=178	=178	=178
*	*^	*	*	*
0DD]	0AAl\	0F#l/	0D]	0A]	0d]
*	*v	*v	*	*	*
==	==	==	==	==
*-	*-	*-	*-	*-
!!!RDF**kern: l=long note in original notation
!!!RDF**kern: i=editorial accidental
!!!ENC:	Jesse Rodin 8/13/2013
!!!END:	2013/08/13/
!!!EED:	Jesse Rodin
!!!EEV:	2014/01/03/
!!!ONB:	Translated from MusicXML and edited on 2014/01/03/ by Craig Sapp
!!muse2ps: C^@{COM}^i2I150v85,85,85,85,130Q8c120
